X:1
T:Alleyne, CM
T:Alleyne, CM
T:J. T. Nickens, 1910
T:Public Domain Courtesy of the Cyber Hymnal™
C:J. T. Nickens, 1910
Z:Public Domain
Z:Courtesy of the Cyber Hymnal™
%%score ( 1 2 ) 3
L:1/8
Q:1/4=115
M:3/4
K:Ab
V:1 treble 
V:2 treble 
V:3 bass 
V:1
 ([Ec][DB]) | [CA]4 [CG]2 | [CB]4 [CA]2 | [DG]4 [DF]2 | [DF]4 (GF) | E4 [Gd]2 | [Fd]4 [Gd]2 | %7
 [Ec]6- | [Ec]4 ([Ec][DB]) | [CA]4 [CG]2 | [CB]4 [CA]2 | [Fe]4 [Fd]2 | [Fd]4 ([DG][DF]) | %13
 [DE]4 [Ed]2 | [DB]4 [Ec]2 | [CA]6- | [CA]4 |] %17
V:2
 x2 | x6 | x6 | x6 | x4 D2 | E4 x2 | x6 | x6 | x6 | x6 | x6 | x6 | x6 | x6 | x6 | x6 | x4 |] %17
V:3
 [A,,A,]2 | [A,,E,]4 [A,,E,]2 | [A,,E,]4 [A,,E,]2 | [D,F,]4 [D,A,]2 | [D,A,]4 [B,,B,]2 | %5
 [E,G,]4 [E,B,]2 | [E,A,]4 [E,B,]2 | [A,,A,]6- | [A,,A,]4 [A,,A,]2 | [A,,E,]4 [A,,E,]2 | %10
 [A,,E,]4 [A,,A,]2 | [D,A,]4 [D,A,]2 | [B,,B,]4 ([D,B,][D,B,]) | [E,G,]4 [E,B,]2 | %14
 [E,G,]4 [E,G,]2 | [A,,E,]6- | [A,,E,]4 |] %17

